common/src/main/resources/icons/nodes/pluginRestart.svg

<svg xmlns="http://www.w3.org/2000/svg" width="16" height="16" data-big="true" viewBox="0 0 24 24"><path fill="#8E24AA" d="M20.5 11H19V7a2 2 0 0 0-2-2h-4V3.5A2.5 2.5 0 0 0 10.5 1 2.5 2.5 0 0 0 8 3.5V5H4a2 2 0 0 0-2 2v3.8h1.5c1.5 0 2.7 1.2 2.7 2.7S5 16.2 3.5 16.2H2V20a2 2 0 0 0 2 2h3.8v-1.5c0-1.5 1.2-2.7 2.7-2.7s2.7 1.2 2.7 2.7V22H17a2 2 0 0 0 2-2v-4h1.5a2.5 2.5 0 0 0 2.5-2.5 2.5 2.5 0 0 0-2.5-2.5"/><path fill="#4DB6AC" d="M5.4 13.8c1.23 0 2.454.462 3.39 1.398a4.79 4.79 0 0 1-.006 6.786 4.75 4.75 0 0 1-4.038 1.368l.318-1.176a3.598 3.598 0 0 0 2.88-6.126A3.57 3.57 0 0 0 5.4 15v2.748l-2.976-2.97 2.976-2.97zm-3.396 8.19a4.79 4.79 0 0 1-.738-5.826l.888.882a3.57 3.57 0 0 0 .696 4.092c.312.312.672.558 1.05.732l-.3 1.17a4.7 4.7 0 0 1-1.596-1.05"/></svg>

<!--
  - The MIT License (MIT)
  -
  - Copyright (c) 2015-2024 Elior "Mallowigi" Boukhobza
  -
  - Permission is hereby granted, free of charge, to any person obtaining a copy
  - of this software and associated documentation files (the "Software"), to deal
  - in the Software without restriction, including without limitation the rights
  - to use, copy, modify, merge, publish, distribute, sublicense, and/or sell
  - copies of the Software, and to permit persons to whom the Software is
  - furnished to do so, subject to the following conditions:
  -
  - The above copyright notice and this permission notice shall be included in all
  - copies or substantial portions of the Software.
  -
  - THE SOFTWARE IS PROVIDED "AS IS", WITHOUT WARRANTY OF ANY KIND, EXPRESS OR
  - IMPLIED, INCLUDING BUT NOT LIMITED TO THE WARRANTIES OF MERCHANTABILITY,
  - FITNESS FOR A PARTICULAR PURPOSE AND NONINFRINGEMENT. IN NO EVENT SHALL THE
  - AUTHORS OR COPYRIGHT HOLDERS BE LIABLE FOR ANY CLAIM, DAMAGES OR OTHER
  - LIABILITY, WHETHER IN AN ACTION OF CONTRACT, TORT OR OTHERWISE, ARISING FROM,
  - OUT OF OR IN CONNECTION WITH THE SOFTWARE OR THE USE OR OTHER DEALINGS IN THE
  - SOFTWARE.
  -->


<svg data-big="true" xmlns="http://www.w3.org/2000/svg" version="1.1" width="16px" height="16px" viewBox="0 0 24 24">
  <path fill="#8E24AA"
        d="M20.5,11H19V7C19,5.89 18.1,5 17,5H13V3.5A2.5,2.5 0 0,0 10.5,1A2.5,2.5 0 0,0 8,3.5V5H4A2,2 0 0,0 2,7V10.8H3.5C5,10.8 6.2,12 6.2,13.5C6.2,15 5,16.2 3.5,16.2H2V20A2,2 0 0,0 4,22H7.8V20.5C7.8,19 9,17.8 10.5,17.8C12,17.8 13.2,19 13.2,20.5V22H17A2,2 0 0,0 19,20V16H20.5A2.5,2.5 0 0,0 23,13.5A2.5,2.5 0 0,0 20.5,11Z"/>
  <path fill="#4DB6AC" transform="scale(.6) translate(-2 19)"
        d="M11,4C13.05,4 15.09,4.77 16.65,6.33C19.78,9.46 19.77,14.5 16.64,17.64C14.81,19.5 12.3,20.24 9.91,19.92L10.44,17.96C12.15,18.12 13.93,17.54 15.24,16.23C17.58,13.89 17.58,10.09 15.24,7.75C14.06,6.57 12.53,6 11,6V10.58L6.04,5.63L11,0.68V4M5.34,17.65C2.7,15 2.3,11 4.11,7.94L5.59,9.41C4.5,11.64 4.91,14.39 6.75,16.23C7.27,16.75 7.87,17.16 8.5,17.45L8,19.4C7,19 6.12,18.43 5.34,17.65Z"/>
</svg>
